src/objects/science/2697.svg

<?xml version="1.0" encoding="UTF-8"?>
<svg id="emoji" xmlns="http://www.w3.org/2000/svg" viewBox="0 0 72 72">
  <g id="grid">
    <path d="m68,4v64H4V4h64m4-4H0v72h72V0Z" fill="#b3b3b3"/>
    <path d="m12.923,10.9583h46.1539c1.0621,0,1.9231.861,1.9231,1.9231h0v46.1538c0,1.0621-.861,1.9231-1.9231,1.9231H12.9231c-1.0621,0-1.9231-.861-1.9231-1.9231h0V12.8813c0-1.062.861-1.923,1.923-1.923h0Z" fill="none" stroke="#00a5ff" stroke-miterlimit="10" stroke-width=".1"/>
    <rect x="16" y="4" width="40" height="64" rx="2.2537" ry="2.2537" fill="none" stroke="#00a5ff" stroke-miterlimit="10" stroke-width=".1"/>
    <rect x="4" y="16" width="64" height="40" rx="2.2537" ry="2.2537" fill="none" stroke="#00a5ff" stroke-miterlimit="10" stroke-width=".1"/>
    <circle cx="36" cy="36" r="29" fill="none" stroke="#00a5ff" stroke-miterlimit="10" stroke-width=".1"/>
  </g>
  <g id="color">
    <ellipse cx="32.3693" cy="32.7239" rx="15.6162" ry="15.3039" fill="#fff"/>
    <path d="m44.0986,22.2548s10.663,7.561,13.1834,12.4079l-.6786.8724-7.8519-5.5254s-.369-1.3571-.4753,2.3265-4.1777-10.0814-4.1777-10.0814Z" fill="#fff"/>
    <g id="_2697" data-name=" 2697">
      <path d="m17.9744,37.97c2.3079,5.3821,8.3214,10.7641,14.7,10.7641s11.9117-5.6449,14.7-10.7641h-29.4Z" fill="#92d3f5"/>
      <path d="m41.749,37.97c-2.46,4.5156-6.9725,9.914-12.4,10.6176.735.0965,1.4755.1454,2.2169.1465,6.3789,0,14.1287-5.6449,16.9172-10.7641h-6.7341Z" fill="#61b2e4"/>
    </g>
  </g>
  <g id="line">
    <g id="_2697-2" data-name=" 2697-2">
      <path d="m49.3016,32.5878l7.6734,5.4653,2.3028-2.2361s-12.4413-19.3754-26.6032-19.3754c-9.0493-.1308-16.4923,7.097-16.627,16.1462.1348,9.0492,7.5777,16.2769,16.627,16.1461,9.0493.1308,16.4922-7.0969,16.627-16.1461" fill="none" stroke="#000" stroke-linecap="round" stroke-linejoin="round" stroke-width="2"/>
      <polyline points="12.722 55.558 18.265 44.794 47.085 44.794 52.627 55.558" fill="none" stroke="#000" stroke-linecap="round" stroke-linejoin="round" stroke-width="2"/>
      <line x1="32.6746" y1="44.7943" x2="32.6746" y2="55.5584" fill="none" stroke="#000" stroke-linecap="round" stroke-linejoin="round" stroke-width="2"/>
    </g>
  </g>
</svg>

<svg id="emoji" viewBox="0 0 72 72" xmlns="http://www.w3.org/2000/svg">
  <g id="grid">
    <path fill="#b3b3b3" d="M68,4V68H4V4H68m4-4H0V72H72V0Z"/>
    <path fill="none" stroke="#00a5ff" stroke-miterlimit="10" stroke-width="0.1" d="M12.923,10.9583H59.0769A1.9231,1.9231,0,0,1,61,12.8814V59.0352a1.9231,1.9231,0,0,1-1.9231,1.9231H12.9231A1.9231,1.9231,0,0,1,11,59.0352V12.8813A1.923,1.923,0,0,1,12.923,10.9583Z"/>
    <rect x="16" y="4" rx="2.2537" width="40" height="64" fill="none" stroke="#00a5ff" stroke-miterlimit="10" stroke-width="0.1"/>
    <rect x="16" y="4" rx="2.2537" width="40" height="64" transform="translate(72) rotate(90)" fill="none" stroke="#00a5ff" stroke-miterlimit="10" stroke-width="0.1"/>
    <circle cx="36" cy="36" r="29" fill="none" stroke="#00a5ff" stroke-miterlimit="10" stroke-width="0.1"/>
  </g>
  <g id="color">
    <g id="_2697">
      <path fill="#92d3f5" d="M17.9744,37.97c2.3079,5.3821,8.3214,10.7641,14.7,10.7641s11.9117-5.6449,14.7-10.7641Z"/>
      <path fill="#61b2e4" d="M41.749,37.97c-2.46,4.5156-6.9725,9.914-12.4,10.6176a17.2181,17.2181,0,0,0,2.2169.1465c6.3789,0,14.1287-5.6449,16.9172-10.7641Z"/>
    </g>
  </g>
  <g id="line">
    <g id="_2697-2">
      <path fill="none" stroke="#000" stroke-linecap="round" stroke-linejoin="round" stroke-width="2" d="M49.3016,32.5878l7.6734,5.4653,2.3028-2.2361S46.8365,16.4416,32.6746,16.4416a16.3919,16.3919,0,0,0-16.627,16.1462,16.3919,16.3919,0,0,0,16.627,16.1461,16.3919,16.3919,0,0,0,16.627-16.1461"/>
      <polyline fill="none" stroke="#000" stroke-linecap="round" stroke-linejoin="round" stroke-width="2" points="12.722 55.558 18.265 44.794 47.085 44.794 52.627 55.558"/>
      <line x1="32.6746" x2="32.6746" y1="44.7943" y2="55.5584" fill="none" stroke="#000" stroke-linecap="round" stroke-linejoin="round" stroke-width="2"/>
    </g>
  </g>
</svg>
